icons/key-16.svg

<svg xmlns="http://www.w3.org/2000/svg" width="16" height="16" viewBox="0 0 16 16"><path d="M10.5 0a5.499 5.499 0 11-1.288 10.848l-.932.932a.749.749 0 01-.53.22H7v.75a.749.749 0 01-.22.53l-.5.5a.749.749 0 01-.53.22H5v.75a.749.749 0 01-.22.53l-.5.5a.749.749 0 01-.53.22h-2A1.75 1.75 0 010 14.25v-2c0-.199.079-.389.22-.53l4.932-4.932A5.5 5.5 0 0110.5 0zm-4 5.5c-.001.431.069.86.205 1.269a.75.75 0 01-.181.768L1.5 12.56v1.69c0 .138.112.25.25.25h1.69l.06-.06v-1.19a.75.75 0 01.75-.75h1.19l.06-.06v-1.19a.75.75 0 01.75-.75h1.19l1.023-1.025a.75.75 0 01.768-.18A4 4 0 106.5 5.5zM11 6a1 1 0 110-2 1 1 0 010 2z"/></svg>

<svg xmlns="http://www.w3.org/2000/svg" width="16" height="16" viewBox="0 0 16 16">
  <defs/>
  <path d="M10.5,0 C12.62,0.002 14.55,1.221 15.461,3.135 C16.373,5.048 16.104,7.315 14.77,8.962 C13.435,10.609 11.273,11.343 9.212,10.848 L8.28,11.78 C8.139,11.921 7.949,12 7.75,12 L7,12 L7,12.75 C7,12.949 6.921,13.139 6.78,13.28 L6.28,13.78 C6.139,13.921 5.949,14 5.75,14 L5,14 L5,14.75 C5,14.949 4.921,15.139 4.78,15.28 L4.28,15.78 C4.139,15.921 3.949,16 3.75,16 L1.75,16 C0.784,16 0,15.216 0,14.25 L0,12.25 C0,12.051 0.079,11.861 0.22,11.72 L5.152,6.788 C4.757,5.149 5.136,3.42 6.179,2.096 C7.222,0.772 8.814,0 10.5,0 Z M6.5,5.5 C6.499,5.931 6.569,6.36 6.705,6.769 C6.795,7.039 6.725,7.336 6.524,7.537 L1.5,12.56 L1.5,14.25 C1.5,14.388 1.612,14.5 1.75,14.5 L3.44,14.5 L3.5,14.44 L3.5,13.25 C3.5,12.836 3.836,12.5 4.25,12.5 L5.44,12.5 L5.5,12.44 L5.5,11.25 C5.5,10.836 5.836,10.5 6.25,10.5 L7.44,10.5 L8.463,9.475 C8.664,9.274 8.962,9.205 9.231,9.295 C10.877,9.846 12.691,9.272 13.72,7.874 C14.75,6.476 14.761,4.574 13.747,3.165 C12.733,1.756 10.926,1.162 9.273,1.694 C7.621,2.227 6.501,3.764 6.5,5.5 Z M11,6 C10.448,6 10,5.552 10,5 C10,4.448 10.448,4 11,4 C11.552,4 12,4.448 12,5 C12,5.552 11.552,6 11,6 Z"/>
</svg>
